X:771
T:Put on your clothes
T:The short grass
R:Jig
O:Ireland
B:O'Neill's 1050 Put on your clothes
B:O'Neill's 981 The short grass
B:Kerr's Second p26
S:O'Neill's 1050
Z:Transcription:henrik.norbeck, chords:Mike Long
M:6/8
L:1/8
K:C
e/d/|\
"C"cGE cGE|"G"{F}EDE CEG|"Am"cGE cGE|"F"Add ded|\
"C"cGE cGE|"G"{F}EDE CEG|"Am"cee e2d|"F"cAA A2:|
z|\
"C"gag ged|ecc cde|"Am"aba age|"G"edd d2e|\
"C"gag ged|ecc cde|"F"fed fed|"Am"ecA A2z||
"C"gag ged|ecc cde|"Am"aba age|"G"edd d2e|\
"C"gfe agf|"G"gfe dcB|"Am"cee e2d|"F"cAA A2|]
